Newaita-dark/actions/24/distribute-vertical-bottom.svg

<?xml version="1.0" encoding="UTF-8"?>
<svg xmlns="http://www.w3.org/2000/svg" xmlns:xlink="http://www.w3.org/1999/xlink" width="24pt" height="24pt" viewBox="0 0 24 24" version="1.1">
<g id="surface1">
<path style=" stroke:none;fill-rule:evenodd;fill:rgb(14.901961%,77.64706%,85.490197%);fill-opacity:1;" d="M 22.0625 13.75 C 22.0625 13.941406 21.90625 14.09375 21.714844 14.09375 L 17.566406 14.09375 C 17.304688 14.09375 17.136719 13.8125 17.261719 13.582031 L 19.335938 11.15625 C 19.554688 10.898438 19.726562 10.898438 19.945312 11.15625 L 22.019531 13.582031 C 22.046875 13.632812 22.0625 13.691406 22.0625 13.75 Z M 22.0625 13.75 "/>
<path style=" stroke:none;fill-rule:evenodd;fill:rgb(14.901961%,77.64706%,85.490197%);fill-opacity:1;" d="M 22.0625 16.394531 C 22.0625 16.203125 21.90625 16.050781 21.714844 16.050781 L 17.566406 16.050781 C 17.304688 16.050781 17.136719 16.328125 17.261719 16.558594 L 19.335938 18.988281 C 19.554688 19.246094 19.726562 19.246094 19.945312 18.988281 L 22.019531 16.558594 C 22.046875 16.507812 22.0625 16.453125 22.0625 16.394531 Z M 22.0625 16.394531 "/>
<path style=" stroke:none;fill-rule:nonzero;fill:rgb(74.117649%,74.117649%,74.117649%);fill-opacity:1;" d="M 19.578125 21.273438 C 19.578125 21.6875 19.25 22.019531 18.835938 22.019531 L 15.09375 22.019531 C 15.023438 22.039062 14.945312 22.054688 14.867188 22.054688 L 8.417969 22.054688 C 8.335938 22.054688 8.261719 22.039062 8.191406 22.019531 L 2.464844 22.019531 C 2.050781 22.019531 1.71875 21.6875 1.71875 21.273438 C 1.71875 20.859375 2.050781 20.53125 2.464844 20.53125 L 7.671875 20.53125 L 7.671875 14.824219 C 7.671875 14.410156 8.003906 14.078125 8.417969 14.078125 L 14.867188 14.078125 C 15.277344 14.078125 15.609375 14.410156 15.609375 14.824219 L 15.609375 20.53125 L 18.835938 20.53125 C 19.25 20.53125 19.578125 20.859375 19.578125 21.273438 Z M 14.121094 20.53125 L 14.121094 16.0625 C 14.121094 15.789062 13.902344 15.566406 13.625 15.566406 L 9.65625 15.566406 C 9.382812 15.566406 9.160156 15.789062 9.160156 16.0625 L 9.160156 20.53125 Z M 14.121094 20.53125 "/>
<path style=" stroke:none;fill-rule:nonzero;fill:rgb(74.117649%,74.117649%,74.117649%);fill-opacity:1;" d="M 19.578125 9.367188 C 19.578125 9.777344 19.25 10.109375 18.835938 10.109375 L 15.09375 10.109375 C 15.023438 10.132812 14.945312 10.144531 14.867188 10.144531 L 4.945312 10.144531 C 4.863281 10.144531 4.789062 10.132812 4.71875 10.109375 L 2.464844 10.109375 C 2.050781 10.109375 1.71875 9.777344 1.71875 9.367188 C 1.71875 8.953125 2.050781 8.621094 2.464844 8.621094 L 4.199219 8.621094 L 4.199219 2.917969 C 4.199219 2.503906 4.53125 2.171875 4.945312 2.171875 L 14.867188 2.171875 C 15.277344 2.171875 15.609375 2.503906 15.609375 2.917969 L 15.609375 8.621094 L 18.835938 8.621094 C 19.25 8.621094 19.578125 8.953125 19.578125 9.367188 Z M 14.121094 8.621094 L 14.121094 4.15625 C 14.121094 3.882812 13.902344 3.660156 13.625 3.660156 L 6.183594 3.660156 C 5.910156 3.660156 5.695312 3.882812 5.6875 4.15625 L 5.6875 8.621094 Z M 14.121094 8.621094 "/>
</g>
</svg>

<svg xmlns="http://www.w3.org/2000/svg" width="32" height="32" viewBox="0 0 24 24"><path d="M22.063 13.75a.345.345 0 0 1-.348.344h-4.149a.347.347 0 0 1-.304-.512l2.074-2.426c.219-.258.39-.258.61 0l2.074 2.426c.027.05.043.11.043.168zm0 0M22.063 16.395a.345.345 0 0 0-.348-.344h-4.149a.344.344 0 0 0-.304.508l2.074 2.43c.219.257.39.257.61 0l2.074-2.43a.343.343 0 0 0 .043-.164zm0 0" fill-rule="evenodd" fill="#26c6da"/><path d="M19.578 21.273a.74.74 0 0 1-.742.747h-3.742a.858.858 0 0 1-.227.035H8.418a.834.834 0 0 1-.227-.035H2.465a.744.744 0 1 1 0-1.489h5.207v-5.707c0-.414.332-.746.746-.746h6.45c.41 0 .741.332.741.746v5.707h3.227c.414 0 .742.328.742.742zm-5.457-.742v-4.468a.494.494 0 0 0-.496-.497H9.656a.497.497 0 0 0-.496.496v4.47zm0 0M19.578 9.367a.74.74 0 0 1-.742.742h-3.742a.724.724 0 0 1-.227.036H4.945a.706.706 0 0 1-.226-.036H2.465a.744.744 0 1 1 0-1.488h1.734V2.918c0-.414.332-.746.746-.746h9.922c.41 0 .742.332.742.746v5.703h3.227a.74.74 0 0 1 .742.746zm-5.457-.746V4.156a.494.494 0 0 0-.496-.496H6.184a.502.502 0 0 0-.497.496v4.465zm0 0" fill="#bdbdbd"/></svg>
